src/assets/skills/sql.svg

<svg height="100pt" viewBox="0 0 100 100" width="100pt" xmlns="http://www.w3.org/2000/svg" xmlns:xlink="http://www.w3.org/1999/xlink"><clipPath id="a"><path d="m0 0h100v100h-100z"/></clipPath><g clip-path="url(#a)"><path d="m74.679 15.974c1.037-.346 2.137-.847 3.111-1.334 2.531-1.265 4.798-4.914 1.778-7.111-2.028-1.474-5.37-2.453-8-3.111-2.631-.658-18.544-1.778-21.778-1.778q-6.317 0-18.222 1.334-6.992.957-10.223 3.111c-1.366.911-3.288 2.757-2.222 4.889.681 1.361 2.433 2.167 3.556 2.666.517.23 1.132 1.051 1.777.889l.889-.889c1.607-.459 3.316-.94 4.889-1.333 2.886-.722 5.946-.153 8.889-.889 2.811-.702 6.233-.444 9.333-.444 5.005 0 10.137-.244 14.667.889.837.209 1.83-.21 2.667 0 2.211.553 4.527 1.064 6.666 1.777.985.328 1.765.348 2.667.889z" fill="#b6d332"/><path d="m24.456 15.085c2.875 2.534 7.904 2.842 11.556 3.555 9.26 1.808 20.102 1.58 29.333-.267 3.355-.67 6.724-1.235 9.778-2.844-3.888-2.443-9.742-2.728-14.222-3.144-7.567-.704-15.546-.85-23.111-.041-4.48.48-9.155.943-13.334 2.741z" fill="#7eb901"/><path d="m12.456 12.418v52.445 23.777c0 2.704-.279 5.54 1.075 7.999 2.914 5.294 10.866 7.079 16.259 8.388 13.405 3.256 28.878 3.103 42.222-.455 4.923-1.313 11.426-3.354 14.269-7.932 1.211-1.949.842-4.472.842-6.666q.226-29.228.188-43.038c-.055-20.195-.267-31.701.257-34.518-1.577 1.747-2.948 3.592-4.889 4.983-3.918 2.807-8.723 4.062-13.334 5.182-11.769 2.858-25.05 2.693-36.889.324-5.135-1.027-10.784-2.407-15.111-5.506-1.941-1.391-3.313-3.236-4.889-4.983z" fill="#177eca"/><g fill="#fff"><path d="m23.568 60.863c0 1.302-.396 3.47.456 4.565.912 1.172 3.099 1.173 4.432 1.206 3.517.087 8.45-.307 9.585-4.438 1.071-3.896-.96-6.768-4.251-8.542-1.55-.835-5.258-2.406-4.366-4.765 1.216-3.217 5.807-1.285 7.921-.471 0-1.236.326-3.138-.457-4.194-.831-1.122-2.74-1.104-3.987-1.132-3.378-.08-7.011.69-8.686 3.995-1.773 3.499.352 7.041 3.359 8.919 1.621 1.013 4.022 1.701 4.931 3.542.802 1.624-.802 2.927-2.271 3.242-2.282.491-4.651-1.09-6.666-1.927z"/><path d="m62.679 72.418c-1.629-2.312-3.698-4.468-6.223-5.778v-.888c7.652-2.273 8.807-13.459 4.21-19.092-1.996-2.446-5.125-3.528-8.21-3.567-9.859-.124-14.553 11.216-9.569 19.096 2.136 3.378 5.102 3.234 8.234 4.902 1.994 1.061 2.898 3.401 4.898 4.426 1.895.971 4.577.405 6.66.901z"/><path d="m67.568 43.529v22.667h13.333v-4.267l-8.621-.001.176-18.399z"/></g><path d="m57.923 54.942c-.11-4.042-2.531-8.095-6.8-7.169-7.62 1.653-5.768 16.535 2.666 14.23 2.913-.796 4.219-3.926 4.134-7.061z" fill="#177eca"/></g></svg>

<?xml version="1.0" encoding="UTF-8" standalone="no"?><!-- Generator: Gravit.io --><svg xmlns="http://www.w3.org/2000/svg" xmlns:xlink="http://www.w3.org/1999/xlink" style="isolation:isolate" viewBox="0 0 100 100" width="100pt" height="100pt"><clipPath id="_clipPath_4xT6z8mhuD6XBJOKe4mpNdVNASqKLUn2"><rect x="0" y="0" width="100" height="100" transform="matrix(1,0,0,1,0,0)" fill="rgb(255,255,255)"/></clipPath><g clip-path="url(#_clipPath_4xT6z8mhuD6XBJOKe4mpNdVNASqKLUn2)"><g><g><path d=" M 74.679 15.974 C 75.716 15.628 76.816 15.127 77.79 14.64 C 80.321 13.375 82.588 9.726 79.568 7.529 C 77.54 6.055 74.198 5.076 71.568 4.418 C 68.937 3.76 53.024 2.64 49.79 2.64 Q 43.473 2.64 31.568 3.974 Q 24.576 4.931 21.345 7.085 C 19.979 7.996 18.057 9.842 19.123 11.974 C 19.804 13.335 21.556 14.141 22.679 14.64 C 23.196 14.87 23.811 15.691 24.456 15.529 L 25.345 14.64 C 26.952 14.181 28.661 13.7 30.234 13.307 C 33.12 12.585 36.18 13.154 39.123 12.418 C 41.934 11.716 45.356 11.974 48.456 11.974 C 53.461 11.974 58.593 11.73 63.123 12.863 C 63.96 13.072 64.953 12.653 65.79 12.863 C 68.001 13.416 70.317 13.927 72.456 14.64 C 73.441 14.968 74.221 14.988 75.123 15.529 L 74.679 15.974 Z " fill="rgb(182,211,50)"/><path d=" M 24.456 15.085 C 27.331 17.619 32.36 17.927 36.012 18.64 C 45.272 20.448 56.114 20.22 65.345 18.373 C 68.7 17.703 72.069 17.138 75.123 15.529 C 71.235 13.086 65.381 12.801 60.901 12.385 C 53.334 11.681 45.355 11.535 37.79 12.344 C 33.31 12.824 28.635 13.287 24.456 15.085 Z " fill="rgb(126,185,1)"/><path d=" M 12.456 12.418 L 12.456 64.863 L 12.456 88.64 C 12.456 91.344 12.177 94.18 13.531 96.639 C 16.445 101.933 24.397 103.718 29.79 105.027 C 43.195 108.283 58.668 108.13 72.012 104.572 C 76.935 103.259 83.438 101.218 86.281 96.64 C 87.492 94.691 87.123 92.168 87.123 89.974 Q 87.349 60.746 87.311 46.936 C 87.256 26.741 87.044 15.235 87.568 12.418 C 85.991 14.165 84.62 16.01 82.679 17.401 C 78.761 20.208 73.956 21.463 69.345 22.583 C 57.576 25.441 44.295 25.276 32.456 22.907 C 27.321 21.88 21.672 20.5 17.345 17.401 C 15.404 16.01 14.032 14.165 12.456 12.418 Z " fill="rgb(23,126,202)"/><path d=" M 23.568 60.863 C 23.568 62.165 23.172 64.333 24.024 65.428 C 24.936 66.6 27.123 66.601 28.456 66.634 C 31.973 66.721 36.906 66.327 38.041 62.196 C 39.112 58.3 37.081 55.428 33.79 53.654 C 32.24 52.819 28.532 51.248 29.424 48.889 C 30.64 45.672 35.231 47.604 37.345 48.418 C 37.345 47.182 37.671 45.28 36.888 44.224 C 36.057 43.102 34.148 43.12 32.901 43.092 C 29.523 43.012 25.89 43.782 24.215 47.087 C 22.442 50.586 24.567 54.128 27.574 56.006 C 29.195 57.019 31.596 57.707 32.505 59.548 C 33.307 61.172 31.703 62.475 30.234 62.79 C 27.952 63.281 25.583 61.7 23.568 60.863 Z " fill="rgb(255,255,255)"/><path d=" M 62.679 72.418 C 61.05 70.106 58.981 67.95 56.456 66.64 L 56.456 65.752 C 64.108 63.479 65.263 52.293 60.666 46.66 C 58.67 44.214 55.541 43.132 52.456 43.093 C 42.597 42.969 37.903 54.309 42.887 62.189 C 45.023 65.567 47.989 65.423 51.121 67.091 C 53.115 68.152 54.019 70.492 56.019 71.517 C 57.914 72.488 60.596 71.922 62.679 72.418 Z " fill="rgb(255,255,255)"/><path d=" M 67.568 43.529 L 67.568 66.196 L 80.901 66.196 L 80.901 61.929 L 72.28 61.928 L 72.456 43.529 L 67.568 43.529 Z " fill="rgb(255,255,255)"/><path d=" M 57.923 54.942 C 57.813 50.9 55.392 46.847 51.123 47.773 C 43.503 49.426 45.355 64.308 53.789 62.003 C 56.702 61.207 58.008 58.077 57.923 54.942 Z " fill="rgb(23,126,202)"/></g></g></g></svg>
